img/icons/eMail.svg

<svg width="21" height="15" viewBox="0 0 21 15" fill="none" xmlns="http://www.w3.org/2000/svg">
<path d="M19.5 0H1.5C1.10218 0 0.720644 0.158035 0.43934 0.43934C0.158035 0.720644 0 1.10218 0 1.5V13.5C0 13.8978 0.158035 14.2794 0.43934 14.5607C0.720644 14.842 1.10218 15 1.5 15H19.5C19.8978 15 20.2794 14.842 20.5607 14.5607C20.842 14.2794 21 13.8978 21 13.5V1.5C21 1.10218 20.842 0.720644 20.5607 0.43934C20.2794 0.158035 19.8978 0 19.5 0V0ZM17.85 1.5L10.5 6.585L3.15 1.5H17.85ZM1.5 13.5V2.1825L10.0725 8.115C10.198 8.2021 10.3472 8.24877 10.5 8.24877C10.6528 8.24877 10.802 8.2021 10.9275 8.115L19.5 2.1825V13.5H1.5Z" fill="#D9D9D9"/>
</svg>

<?xml version="1.0" encoding="utf-8"?>
<!-- Generator: Adobe Illustrator 24.0.3, SVG Export Plug-In . SVG Version: 6.00 Build 0)  -->
<svg version="1.1" id="Слой_1" xmlns="http://www.w3.org/2000/svg" xmlns:xlink="http://www.w3.org/1999/xlink" x="0px" y="0px"
	 viewBox="0 0 21 15" style="enable-background:new 0 0 21 15;" xml:space="preserve">
<path d="M19.5,0h-18C1.1,0,0.7,0.2,0.4,0.4C0.2,0.7,0,1.1,0,1.5v12c0,0.4,0.2,0.8,0.4,1.1C0.7,14.8,1.1,15,1.5,15h18
	c0.4,0,0.8-0.2,1.1-0.4c0.3-0.3,0.4-0.7,0.4-1.1v-12c0-0.4-0.2-0.8-0.4-1.1C20.3,0.2,19.9,0,19.5,0L19.5,0z M17.9,1.5l-7.4,5.1
	L3.2,1.5H17.9z M1.5,13.5V2.2l8.6,5.9c0.1,0.1,0.3,0.1,0.4,0.1s0.3,0,0.4-0.1l8.6-5.9v11.3H1.5z"/>
</svg>
